X:1
T: Put on your clothes
C:
R:Jig
Q:180
K:Bm
M:6/8
L:1/16
|:fe|d2A2F2 d2A2F2|F2E2F2 D2F2A2|d2A2F2 d2A2F2|B2e2e2 e2f2e2|
d2A2F2 d2A2F2|F2E2F2 D2F2A2|d2f2f2 f4e2|d2B2B2 B4:|
|:z2|a2b2a2 a2f2e2|f2d2d2 d2e2f2|b2c'2b2 b2a2f2|f2e2e2 e4f2|
a2b2a2 a2f2e2|f2d2d2 d2e2f2|g2f2e2 f4e2|d2B2B2 B4:|
